X:1
T:Musiciens qui chantez à plaisir
T:Musiciens qui chantez à plaisir
T:Hubert Waelrant
C:Hubert Waelrant
%%score [ 1 2 3 4 ]
L:1/8
Q:1/4=250
M:4/4
K:F
V:1 treble nm="S."
V:2 treble nm="A."
V:3 treble-8 nm="T."
V:4 bass nm="B."
V:1
 A8 | c4 A4 | A4 G4 | A4 z2 B2 | B2 B2 A2 A2 | B6 B2 | A2 B4 A2 | B8 | B4 B2 B2 | A4 A4 | B6 A2 | %11
w: Ma-|don- na|mi- a|fa, Ma-|don- na mi- a|fam- me|bon of- fer-|ta,|Ch'io por- to|per pre-|sen- te|
 G2 G2 ^F4 | G4 z4 | B4 B2 B2 | A4 A4 | B6 B2 | G2 G2 ^F4 | G4 z2 =B2 | =B2 B2 c4 | A2 A2 A2 A2 | %20
w: sto ga- luc-|cio,|Ch'io por- to|per pre-|sen- te|sto ga- luc-|cio, Che|sem- pre can-|ta, che sem- pre|
 =B4 c2 c2- | c2 =B2 c4 | A4 A2 A2 | B4 A2 c2 | c2 c2 =B2 B2 | c4 A4 | c3 d =B4 | =B3 B c4 | %28
w: can- ta quan-|* dè di,|Al- le ga-|li- ne, al-|le ga- li- n'e|di- ce:|chi chir- chi|chi chir- chi,|
 c3 d =B4 | =B3 B c2 c2 | c2 c2 =B2 B2 | c4 A2 A2 | A2 A2 B2 B2 | A4 A2 A2- | A2 c2 =B4 | c4 A4 | %36
w: chi chir- chi|chi chir- chi, E|tan- to cal- ca|for- te, e|tan- to cal- ca|for- te la|* ga- li-|na, Che|
 A2 A2 B2 B2 | A4 F2 G2- | G2 F2 E4 | F4 A4 | A2 A2 B2 B2 | A4 F2 G2- | G2 F2 E4 | F8 |] %44
w: li fa nas- cer|l'o- v'o- gni|* ma- ti-|na, Che|li fa nas- cer|l'o- v'o- gni|* ma- ti-|na.|
V:2
 F8 | F4 F4 | F4 E4 | C4 z2 F2 | F2 F2 F2 F2 | F6 F2 | F2 D2 F4 | F8 | F4 F2 F2 | F4 F4 | F6 F2 | %11
w: Ma-|don- na|mi- a|fa, Ma-|don- na mi- a|fam- me|bon of- fer-|ta,|Ch'io por- to|per pre-|sen- te|
 _E2 E2 D4 | D4 z4 | G4 F2 F2 | F4 F4 | F6 F2 | _E2 E2 D4 | D4 z2 G2 | G2 G2 G4 | F2 D2 C2 D2 | %20
w: sto ga- luc-|cio,|Ch'io por- to|per pre-|sen- te|sto ga- luc-|cio, Che|sem- pre can-|ta, che sem- pre|
 D2 G,2 G4 | G4 E4 | F4 F2 F2 | F4 F2 G2 | G2 G2 G2 G2 | G4 F4 | A3 A G4 | D3 D G4 | A3 A G4 | %29
w: can- ta quan-|dè di,|Al- le ga-|li- ne, al-|le ga- li- n'e|di- ce:|chi chir- chi|chi chir- chi,|chi chir- chi|
 D3 D G2 G2 | G2 G2 G2 G2 | G4 F2 F2 | F2 F2 F2 F2 | F4 F2 C2- | C2 G2 G4 | E4 z2 F2- | %36
w: chi chir- chi, E|tan- to cal- ca|for- te, e|tan- to cal- ca|for- te la|* ga- li-|na, Che|
 F2 F2 F2 F2 | F2 C4 G,2 | C2 C2 C4 | A,6 F2- | F2 F2 F2 F2 | F2 C4 G,2 | C2 C2 C4 | C8 |] %44
w: * li fa nas-|cer l'o- v'o-|gni ma- ti-|na, Che|* li fa nas-|cer l'o- v'o-|gni ma- ti-|na.|
V:3
 c8 | A4 c4 | B4 B4 | A4 z2 d2 | d2 d2 c2 c2 | d6 d2 | c2 B2 c4 | d8 | d4 d2 d2 | c4 c4 | d6 d2 | %11
w: Ma-|don- na|mi- a|fa, Ma-|don- na mi- a|fam- me|bon of- fer-|ta,|Ch'io por- to|per pre-|sen- te|
 B2 c2 A4 | G4 z4 | d4 d2 d2 | c4 c4 | d6 d2 | B2 c2 A4 | G4 z2 d2 | d2 d2 _e4 | d2 f2 f2 f2 | %20
w: sto ga- luc-|cio,|Ch'io por- to|per pre-|sen- te|sto ga- luc-|cio, Che|sem- pre can-|ta, che sem- pre|
 d2 d2 _e4 | d4 c4 | c4 c2 c2 | d4 c2 _e2 | _e2 e2 d2 d2 | _e4 c4 | f3 f d4 | g3 g e4 | f3 f d4 | %29
w: can- ta quan-|dè di,|Al- le ga-|li- ne, al-|le ga- li- n'e|di- ce:|chi chir- chi|chi chir- chi,|chi chir- chi|
 g3 g e2 e2 | e2 e2 d2 d2 | e4 c2 c2 | c2 c2 d2 d2 | c4 c2 f2- | f2 e2 d4 | c4 c4 | c2 c2 d2 d2 | %37
w: chi chir- chi, E|tan- to cal- ca|for- te, e|tan- to cal- ca|for- te la|* ga- li-|na, Che|li fa nas- cer|
 c4 A2 B2- | B2 A2 G4 | F4 c4 | c2 c2 d2 d2 | c4 A2 B2- | B2 A2 G4 | F8 |] %44
w: l'o- v'o- gni|* ma- ti-|na, Che|li fa nas- cer|l'o- v'o- gni|* ma- ti-|na.|
V:4
 F,8 | F,4 F,4 | D,4 E,4 | F,4 z2 B,,2 | B,,2 B,,2 F,2 F,2 | B,,6 B,,2 | F,2 G,2 F,4 | B,,8 | %8
w: Ma-|don- na|mi- a|fa, Ma-|don- na mi- a|fam- me|bon of- fer-|ta,|
 B,,4 B,,2 B,,2 | F,4 F,4 | B,,6 D,2 | _E,2 C,2 D,4 | G,4 z4 | G,4 B,2 B,,2 | F,4 F,4 | B,,6 D,2 | %16
w: Ch'io por- to|per pre-|sen- te|sto ga- luc-|cio,|Ch'io por- to|per pre-|sen- te|
 _E,2 C,2 D,4 | G,4 z2 G,2 | G,2 G,2 C,4 | D,2 D,2 F,2 D,2 | G,2 G,2 C,4 | G,4 C,4 | F,4 F,2 F,2 | %23
w: sto ga- luc-|cio, Che|sem- pre can-|ta, che sem- pre|can- ta quan-|dè di,|Al- le ga-|
 B,,4 F,2 C,2 | C,2 C,2 G,2 G,2 | C,4 F,4 | F,3 D, G,4 | G,3 G, C,4 | F,3 D, G,4 | G,3 G, C,2 C,2 | %30
w: li- ne, al-|le ga- li- n'e|di- ce:|chi chir- chi|chi chir- chi,|chi chir- chi|chi chir- chi, E|
 C,2 C,2 G,2 G,2 | C,4 F,2 F,2 | F,2 F,2 B,,2 B,,2 | F,4 F,2 F,2- | F,2 C,2 G,4 | C,4 F,4 | %36
w: tan- to cal- ca|for- te, e|tan- to cal- ca|for- te la|* ga- li-|na, Che|
 F,2 F,2 B,,2 B,,2 | F,6 E,2 | F,2 F,2 C,4 | C4 F,4 | F,2 F,2 B,,2 B,,2 | F,6 E,2 | F,2 F,2 C,4 | %43
w: li fa nas- cer|l'o- v'o-|gni ma- ti-|na, Che|li fa nas- cer|l'o- v'o-|gni ma- ti-|
 F,8 |] %44
w: na.|

